!!!!SEGMENT: pl-sa--574-a-ix-54--003_pleyel-ignace--allegro.krn
!!!cenid: 18xx:613
!!!COM: Pleyel, Ignace
!!!COM-rismid: pe24761
!!!CDT: 1757/06/18-1831/11/14
!!!CNT: French
!!!OTL: Allegro
!!!PDT:
!!!AGN: Secular
!!!SMS-siglum: PL-SA
!!!SMS-shelfmark: 574/A IX 54
!!!SMS-shelfwork: 003 W
!!!SMS-variant:
!!!SMS-altvar:
!!!NIFC-rismid: 1001109862
!!!URL-scan: http://bc.bdsandomierz.pl/dlibra/publication/1380/edition/1348/content
!!!ONB-nifc: Str. 10, s. 1-3
!!!AIN: 1 piano
!!!key:
**kern	**kern
*part1	*part1
*staff2	*staff1
*Ipiano	*Iempty
*I"Piano	*
*I'P-no	*
*group1	*group1
*clefF4	*clefG2
*k[]	*k[]
*C:	*C:
*M2/4	*M2/4
*>[A,A,B,B,C,C]	*>[A,A,B,B,C,C]
=1	=1
*>A	*>A
*2\right	*2\right
!LO:TX:a:t=P:problem=4/left&colon; global	!
!	!LO:TX:a:t=P:problem=klucz basowy w pozycji F3
!	!LO:TX:a:t=Allegro
*clefG2	*
4c/ 4g	8ee\L
.	16ff\L
.	16ee\JJ
4f/	8dd\L
.	16ee\L
.	16dd\JJ
=2	=2
4c/ 4e	4cc\
8r	8g\L
!LO:TX:a:t=P:problem=8/left&colon; global	!
8c/ 8e 8g	8cc\J
=3	=3
*^	*
8f/L	2B\	8dd`\L
8g/J	.	8dd`\
!	!	!LO:TX:a:t=P:problem= powtórka poprzedniej grupy oznaczona skrótem ÷
*rep	*	*
8f/L	.	8dd`\
8g/J	.	8dd`\J
*Xrep	*	*
*v	*v	*
=4	=4
4c/ 4e	4gg\
8g/	8ee\
8r	8r
=5	=5
*clefF4	*
4C\ 4G	8ee\L
.	16ff\L
.	16ee\JJ
4F\	8dd\L
.	16ee\L
.	16dd\JJ
=6	=6
4C\ 4E	4cc\
8r	8g\L
8E\ 8G	8cc\J
=7	=7
4F\ 4A	8dd`\L
.	8dd`\J
4G\ 4B	8dd`\L
.	(16dd\L
.	16ee\JJ)
=8	=8
4c\	4cc\
8C/	4r
8r	.
=9:|!|:	=9:|!|:
*>B	*>B
*tremolo	*
*tremolo	*
8B\ 8dL	8ryy
8B\ 8dJ	8gg`\L
8G\L	8ggT\
!	!LO:TX:a:i:t=fura
!	!LO:TX:a:t=P:problem=fura, sura? (odczyt niepewny)
8G\J	8bb\J
=10	=10
8c\ 8eL	8gg`\L
8c\ 8eJ	8ggT\J
8G\L	4ccc\
8G\J	.
=11	=11
.	8qgg/
8B\ 8dL	8ff`\L
8B\ 8dJ	8ee`\
8G\L	8ff`\
8G\J	8gg`\J
=12	=12
8c\ 8eL	4ee\
8c\ 8eJ	.
8G\L	8cc\
8G\J	8r
=13	=13
8B\ 8dL	8gg`\L
8B\ 8dJ	8ggT\J
8G\L	4bb\
8G\J	.
=14	=14
8c\ 8eL	8gg`\L
8c\ 8eJ	8ggT\J
8G\L	4ccc\
8G\J	.
!!LO:LB:g=original
=15	=15
.	8qgg/
8B\ 8dL	8ff`\L
8B\ 8dJ	8ee`\
8G\L	8ff`\
8G\J	8dd`\J
*Xtremolo	*
*Xtremolo	*
=16	=16
4c\	4cc\
8C/	4r
8r	.
*clefG2	*
=17:|!|:	=17:|!|:
*>C	*>C
4c/ 4g	8ee\L
.	16ff\L
.	16ee\JJ
4f/	8dd\L
.	16ee\L
.	16dd\JJ
=18	=18
4c/ 4e	4cc\
8r	8g\L
8c/ 8e 8g	8cc\J
=19	=19
*^	*
8f/L	2B\	8dd`\L
8g/J	.	8dd`\
*rep	*	*
8f/L	.	8dd`\
8g/J	.	8dd`\J
*Xrep	*	*
*v	*v	*
=20	=20
4c/ 4e	4gg\
8g/	8ee\
8r	8r
*clefF4	*
=21	=21
4C\ 4G	8ee\L
.	16ff\L
.	16ee\JJ
4F\	8dd\L
.	16ee\L
.	16dd\JJ
=22	=22
4C\ 4E	4cc\
8r	8g\L
8E\ 8G	8cc\J
=23	=23
4F\ 4A	8dd`\L
.	8dd`\J
4G\ 4B	8dd`\L
.	16dd\L
.	16ee\JJ
=24	=24
4C\ 4c	4cc\
4r	8r
.	8qff#X/
.	8gg\
=25	=25
*	*Xtuplet
2G\ 2B 2d	8dd`\L
.	8dd`\J
!	!LO:TX:a:t=P:problem=triole nieoznaczone&colon;global
.	12dd`\L
.	(12dd\
.	12ee\J)
=26	=26
4c\ 4e	4cc\
4r	8r
.	8qff#X/
.	8gg\
=27	=27
2G\ 2B 2d	8dd`\L
.	8dd`\J
.	12dd`\L
.	(12dd\
.	12ee\J)
!!LO:LB:g=original
=28	=28
4c\ 4e	4cc\
4r	4r
=29	=29
4GG\ 4G	4cc\ 4gg 4ccc
4ryy	4r
=30	=30
4CC/ 4E	4cc\ 4ee 4gg 4ccc
4r	4r
==	==
*-	*-
!!!system-decoration: {(g1)}
!!!ENC: Anna Matuszewska
!!!END: 2020-12-06
!!!ENC: Kamil Watkowski
!!!END: 2020-06-19
